X:101
T:Shepheards Holyday
T:Labour in Vaine
R:Jig
M:6/8
L:1/8
Q:100
K:Bb
d|d>ed g3|f3 e3|d>ed c2B|AGA B/2A/2B/2c/2d/2e/2|f>ed c2B|1 BA2 B2:|2 BA2 B2||
d|:d>ef dcB|d2B d3|B>cd BAG|d2^F d3|G>AB GFE|B c/2d/2e/2f/2 d> cB/2A/2|1 B>AG G2d:|2 B>AG G2||
W:Fie upon love! fond love! false love!
W:Great are the torments that W:lovers endure
W:It is a snare - brings care - bones bare
W:None can a W:remedy for it procure
W:Of all the afflictions that are incident
W:To us while we march under Time's regiment
W:There's nothing to man W:brings such discontent
W:As love unbeloved againe
W:It breaketh our sleep, it distracteth the wit
W:It make use doe things that for men are unfit
W:If I may but give a true censure on it
W:It shall be call'd "Labour in vaine".

